build/img/icon-logo.svg

<svg width="100" height="22" viewBox="0 0 100 22" fill="none" xmlns="http://www.w3.org/2000/svg">
<path d="M5.22161 18.7068C5.22161 19.3632 5.29031 19.8385 5.42772 20.1327C5.56514 20.427 5.81705 20.6307 6.18348 20.7438C6.54991 20.8344 7.14536 20.8796 7.96982 20.8796H11.7143C13.0197 20.8796 14.0617 20.4835 14.8404 19.6914C15.619 18.8992 16.1343 17.8014 16.3862 16.3981C16.3862 16.3302 16.4435 16.3076 16.558 16.3302C16.6954 16.3302 16.7641 16.3642 16.7641 16.4321C16.558 18.3107 16.4549 19.8611 16.4549 21.0833C16.4549 21.2644 16.4206 21.4002 16.3519 21.4907C16.2832 21.5586 16.1458 21.5926 15.9396 21.5926H0.0687054C0.0229018 21.5926 0 21.5247 0 21.3889C0 21.2531 0.0229018 21.1852 0.0687054 21.1852C0.938973 21.1852 1.56877 21.1286 1.9581 21.0154C2.37034 20.9023 2.64516 20.6872 2.78257 20.3704C2.91998 20.0309 2.98868 19.5216 2.98868 18.8426V3.12346C2.98868 2.44445 2.91998 1.9465 2.78257 1.62963C2.64516 1.31276 2.37034 1.09774 1.9581 0.984567C1.56877 0.848765 0.938973 0.780864 0.0687054 0.780864C0.0229018 0.780864 0 0.712963 0 0.577161C0 0.441359 0.0229018 0.373458 0.0687054 0.373458L1.75199 0.407408C2.71386 0.452675 3.49252 0.475309 4.08797 0.475309C4.72922 0.475309 5.53078 0.452675 6.49266 0.407408L8.14159 0.373458C8.21029 0.373458 8.24464 0.441359 8.24464 0.577161C8.24464 0.712963 8.21029 0.780864 8.14159 0.780864C7.29422 0.780864 6.66442 0.848765 6.25219 0.984567C5.86286 1.09774 5.58804 1.32407 5.42772 1.66358C5.29031 1.98045 5.22161 2.4784 5.22161 3.15741V18.7068Z" fill="black"/>
<path d="M32.2102 22C30.0803 22 28.1794 21.5134 26.5076 20.5401C24.8587 19.5442 23.5762 18.2088 22.6601 16.534C21.7669 14.8364 21.3204 12.9918 21.3204 11C21.3204 8.66873 21.9158 6.67695 23.1067 5.02469C24.2976 3.34979 25.8206 2.09362 27.6756 1.25617C29.5536 0.418724 31.4659 0 33.4125 0C35.5882 0 37.5005 0.509259 39.1494 1.52778C40.7983 2.52366 42.0579 3.84774 42.9282 5.5C43.8214 7.15226 44.268 8.90638 44.268 10.7623C44.268 12.822 43.7183 14.7119 42.619 16.4321C41.5197 18.1523 40.0426 19.5103 38.1875 20.5062C36.3554 21.5021 34.3629 22 32.2102 22ZM33.4125 21.287C34.9698 21.287 36.3668 20.9136 37.6035 20.1667C38.8631 19.4198 39.8479 18.322 40.5579 16.8735C41.2907 15.4249 41.6572 13.7047 41.6572 11.713C41.6572 9.58539 41.2564 7.69547 40.4548 6.04321C39.6532 4.39095 38.5196 3.10082 37.0539 2.17284C35.6111 1.24486 33.9163 0.780864 31.9697 0.780864C29.4505 0.780864 27.4809 1.58436 26.061 3.19136C24.6411 4.79835 23.9312 7.00514 23.9312 9.81173C23.9312 11.9393 24.3319 13.8858 25.1335 15.6512C25.9351 17.394 27.0573 18.7747 28.5001 19.7932C29.9429 20.7891 31.5804 21.287 33.4125 21.287Z" fill="black"/>
<path d="M62.305 22C59.8087 22 57.633 21.5247 55.7779 20.5741C53.9229 19.6235 52.503 18.3333 51.5182 16.7037C50.5563 15.0741 50.0754 13.2521 50.0754 11.2377C50.0754 9.04218 50.6365 7.09568 51.7587 5.39815C52.9038 3.70062 54.4611 2.37654 56.4306 1.42593C58.4231 0.475309 60.6675 0 63.1638 0C64.286 0 65.3509 0.113169 66.3586 0.339506C67.3892 0.54321 68.2251 0.837449 68.8663 1.22222C69.0495 1.33539 69.1526 1.43724 69.1755 1.52778C69.2213 1.59568 69.2556 1.75412 69.2785 2.00309L69.6908 5.80556C69.6908 5.87346 69.6221 5.91872 69.4847 5.94136C69.3702 5.94136 69.3015 5.90741 69.2785 5.83951C68.7747 4.20988 67.8586 2.9537 66.5303 2.07099C65.2249 1.18827 63.6104 0.746914 61.6866 0.746914C58.801 0.746914 56.5681 1.57305 54.9878 3.22531C53.4076 4.87757 52.6175 7.14095 52.6175 10.0154C52.6175 12.2109 53.0641 14.18 53.9572 15.9228C54.8733 17.643 56.1329 18.9897 57.736 19.963C59.3392 20.9362 61.137 21.4228 63.1294 21.4228C64.2974 21.4228 65.202 21.321 65.8433 21.1173C66.4845 20.9136 66.954 20.5175 67.2517 19.929C67.5495 19.3405 67.6983 18.4691 67.6983 17.3148C67.6983 16.1379 67.6182 15.323 67.4579 14.8704C67.3204 14.3951 66.9884 14.0782 66.4616 13.9198C65.9578 13.7613 65.0761 13.6821 63.8165 13.6821C63.6791 13.6821 63.6104 13.5916 63.6104 13.4105C63.6104 13.3426 63.6218 13.286 63.6447 13.2407C63.6905 13.1728 63.7363 13.1389 63.7821 13.1389C65.5685 13.2521 67.0113 13.3086 68.1106 13.3086C69.1869 13.3086 70.3091 13.2747 71.4771 13.2068C71.5229 13.2068 71.5573 13.2407 71.5802 13.3086C71.626 13.3539 71.6489 13.3992 71.6489 13.4444C71.6489 13.6029 71.5916 13.6821 71.4771 13.6821C70.9275 13.6595 70.5381 13.7387 70.3091 13.9198C70.0801 14.0782 69.9312 14.4177 69.8625 14.9383C69.7938 15.4588 69.7595 16.3642 69.7595 17.6543C69.7595 18.6728 69.7938 19.3971 69.8625 19.8272C69.9541 20.2572 70 20.5288 70 20.642C70 20.7778 69.9771 20.8683 69.9312 20.9136C69.8854 20.9588 69.7824 21.0041 69.6221 21.0494C66.851 21.6831 64.4119 22 62.305 22Z" fill="black"/>
<path d="M87.9422 22C85.8123 22 83.9115 21.5134 82.2397 20.5401C80.5907 19.5442 79.3082 18.2088 78.3922 16.534C77.499 14.8364 77.0524 12.9918 77.0524 11C77.0524 8.66873 77.6479 6.67695 78.8388 5.02469C80.0296 3.34979 81.5526 2.09362 83.4077 1.25617C85.2856 0.418724 87.1979 0 89.1446 0C91.3202 0 93.2325 0.509259 94.8815 1.52778C96.5304 2.52366 97.79 3.84774 98.6603 5.5C99.5534 7.15226 100 8.90638 100 10.7623C100 12.822 99.4504 14.7119 98.3511 16.4321C97.2518 18.1523 95.7746 19.5103 93.9196 20.5062C92.0874 21.5021 90.095 22 87.9422 22ZM89.1446 21.287C90.7019 21.287 92.0989 20.9136 93.3356 20.1667C94.5952 19.4198 95.58 18.322 96.2899 16.8735C97.0228 15.4249 97.3892 13.7047 97.3892 11.713C97.3892 9.58539 96.9884 7.69547 96.1869 6.04321C95.3853 4.39095 94.2517 3.10082 92.7859 2.17284C91.3431 1.24486 89.6484 0.780864 87.7017 0.780864C85.1825 0.780864 83.213 1.58436 81.7931 3.19136C80.3732 4.79835 79.6632 7.00514 79.6632 9.81173C79.6632 11.9393 80.064 13.8858 80.8656 15.6512C81.6671 17.394 82.7893 18.7747 84.2321 19.7932C85.6749 20.7891 87.3124 21.287 89.1446 21.287Z" fill="black"/>
</svg>

<svg width="100" height="22" fill="none" xmlns="http://www.w3.org/2000/svg"><path d="M5.222 18.707c0 .656.068 1.131.206 1.426.137.294.39.498.755.61.367.091.962.137 1.787.137h3.744c1.306 0 2.348-.396 3.126-1.189.779-.792 1.294-1.89 1.546-3.293 0-.068.058-.09.172-.068.137 0 .206.034.206.102-.206 1.879-.31 3.43-.31 4.651 0 .181-.033.317-.102.408-.069.068-.206.102-.412.102H.069c-.046 0-.069-.068-.069-.204 0-.136.023-.204.069-.204.87 0 1.5-.056 1.89-.17.411-.113.686-.328.824-.645.137-.34.206-.848.206-1.527V3.123c0-.679-.069-1.177-.206-1.493-.138-.317-.413-.532-.825-.645C1.568.849.94.78.068.78.024.78 0 .713 0 .577S.023.373.069.373l1.683.034c.962.046 1.74.068 2.336.068.641 0 1.443-.022 2.405-.068L8.142.373c.068 0 .103.068.103.204 0 .136-.035.204-.103.204-.848 0-1.478.068-1.89.204-.39.113-.664.34-.824.679-.138.316-.206.814-.206 1.493v15.55zM32.21 22c-2.13 0-4.03-.487-5.702-1.46a10.484 10.484 0 01-3.848-4.006c-.893-1.698-1.34-3.542-1.34-5.534 0-2.331.596-4.323 1.787-5.975a11.142 11.142 0 014.569-3.769C29.554.42 31.466 0 33.413 0c2.175 0 4.088.51 5.736 1.528 1.65.996 2.909 2.32 3.78 3.972a10.904 10.904 0 011.339 5.262c0 2.06-.55 3.95-1.649 5.67-1.1 1.72-2.576 3.078-4.431 4.074C36.355 21.502 34.362 22 32.21 22zm1.203-.713c1.557 0 2.954-.373 4.19-1.12 1.26-.747 2.245-1.845 2.955-3.294.733-1.448 1.1-3.168 1.1-5.16 0-2.128-.402-4.018-1.203-5.67-.802-1.652-1.935-2.942-3.401-3.87C35.61 1.245 33.916.78 31.97.78c-2.52 0-4.49.803-5.909 2.41-1.42 1.607-2.13 3.814-2.13 6.62 0 2.128.4 4.075 1.203 5.84.801 1.743 1.923 3.124 3.366 4.142 1.443.996 3.08 1.494 4.913 1.494zM62.305 22c-2.496 0-4.672-.475-6.527-1.426-1.855-.95-3.275-2.24-4.26-3.87-.962-1.63-1.443-3.452-1.443-5.466 0-2.196.561-4.142 1.684-5.84 1.145-1.697 2.702-3.021 4.672-3.972C58.423.476 60.667 0 63.164 0c1.122 0 2.187.113 3.195.34 1.03.203 1.866.497 2.507.882.183.113.287.215.31.306.045.068.08.226.102.475l.413 3.803c0 .067-.069.113-.206.135-.115 0-.183-.034-.207-.101-.503-1.63-1.42-2.886-2.748-3.769-1.305-.883-2.92-1.324-4.843-1.324-2.886 0-5.119.826-6.7 2.478-1.58 1.653-2.37 3.916-2.37 6.79 0 2.196.447 4.165 1.34 5.908.916 1.72 2.176 3.067 3.779 4.04 1.603.973 3.401 1.46 5.393 1.46 1.168 0 2.073-.102 2.714-.306a2.293 2.293 0 001.409-1.188c.297-.588.446-1.46.446-2.614 0-1.177-.08-1.992-.24-2.445-.138-.475-.47-.792-.996-.95-.504-.159-1.386-.238-2.646-.238-.137 0-.206-.09-.206-.271 0-.068.012-.125.035-.17.045-.068.091-.102.137-.102 1.787.113 3.23.17 4.329.17a57.98 57.98 0 003.366-.102c.046 0 .08.034.103.102.046.045.069.09.069.135 0 .159-.057.238-.172.238-.55-.023-.939.057-1.168.238-.229.158-.378.498-.447 1.018-.068.52-.102 1.426-.102 2.716 0 1.019.034 1.743.102 2.173.092.43.138.702.138.815 0 .136-.023.226-.069.272-.046.045-.149.09-.309.135-2.771.634-5.21.951-7.317.951zm25.637 0c-2.13 0-4.03-.487-5.702-1.46a10.482 10.482 0 01-3.848-4.006c-.893-1.698-1.34-3.542-1.34-5.534 0-2.331.596-4.323 1.787-5.975a11.14 11.14 0 014.569-3.769C85.286.42 87.198 0 89.145 0c2.175 0 4.088.51 5.737 1.528 1.648.996 2.908 2.32 3.778 3.972a10.905 10.905 0 011.34 5.262c0 2.06-.55 3.95-1.649 5.67-1.1 1.72-2.576 3.078-4.431 4.074-1.833.996-3.825 1.494-5.978 1.494zm1.203-.713c1.557 0 2.954-.373 4.19-1.12 1.26-.747 2.245-1.845 2.955-3.294.733-1.448 1.1-3.168 1.1-5.16 0-2.128-.402-4.018-1.203-5.67-.802-1.652-1.935-2.942-3.401-3.87C91.343 1.245 89.648.78 87.702.78c-2.52 0-4.489.803-5.909 2.41-1.42 1.607-2.13 3.814-2.13 6.62 0 2.128.401 4.075 1.203 5.84.801 1.743 1.923 3.124 3.366 4.142 1.443.996 3.08 1.494 4.913 1.494z" fill="#000"/></svg>
